dealnox/img/icon-whatsapp.svg

<svg width="70" height="70" viewBox="0 0 70 70" fill="none" xmlns="http://www.w3.org/2000/svg">
<mask id="mask0_238_2542" style="mask-type:alpha" maskUnits="userSpaceOnUse" x="0" y="0" width="70" height="70">
<path fill-rule="evenodd" clip-rule="evenodd" d="M15.9134 0.0345882C14.3523 0.0900804 12.3403 0.212213 11.4258 0.396788V0.396788C10.0299 0.678684 8.7116 1.10608 7.61529 1.66484V1.66484C6.32723 2.32128 5.1728 3.15881 4.17597 4.15408V4.15408C3.17687 5.15126 2.33598 6.30677 1.6769 7.59676V7.59676C1.1197 8.68718 0.692545 9.99743 0.409451 11.3855V11.3855C0.221161 12.3092 0.0966326 14.3361 0.0401815 15.9073V15.9073C0.0172894 16.5495 0.00554379 17.3805 0.00554379 17.7638V17.7638L3.05176e-05 52.2309C3.05176e-05 52.6126 0.0116563 53.4439 0.0344285 54.0868V54.0868C0.0899208 55.6478 0.212052 57.6597 0.396746 58.5742V58.5742C0.678522 59.97 1.10604 61.2884 1.66468 62.3847V62.3847C2.32124 63.6729 3.15865 64.8271 4.15392 65.8241V65.8241C5.1511 66.823 6.30673 67.6639 7.5966 68.3231V68.3231C8.68714 68.8802 9.99739 69.3075 11.3853 69.5906V69.5906C12.309 69.7789 14.3361 69.9034 15.9073 69.9597V69.9597C16.5492 69.9827 17.3804 69.9945 17.7637 69.9945V69.9945L52.2307 70C52.6126 70 53.4439 69.9885 54.0865 69.9656V69.9656C55.6476 69.91 57.6597 69.788 58.5741 69.6033V69.6033C59.97 69.3214 61.2884 68.8939 62.3846 68.3354V68.3354C63.6727 67.6788 64.8271 66.8413 65.8239 65.8461V65.8461C66.8229 64.8488 67.6638 63.6934 68.323 62.4034V62.4034C68.8801 61.3129 69.3075 60.0028 69.5904 58.6147V58.6147C69.7788 57.691 69.9033 55.6638 69.9597 54.0928V54.0928C69.9827 53.4507 69.9943 52.6197 69.9943 52.2364V52.2364L70 17.7693C70 17.3875 69.9883 16.5562 69.9655 15.9134V15.9134C69.9098 14.3524 69.7878 12.3404 69.6031 11.426V11.426C69.3214 10.03 68.8938 8.71175 68.3352 7.61545V7.61545C67.6788 6.32727 66.8411 5.17296 65.8461 4.17601V4.17601C64.8488 3.17715 63.6932 2.33614 62.4033 1.67707V1.67707C61.3127 1.11987 60.0026 0.692588 58.6146 0.409613V0.409613C57.6909 0.221323 55.6638 0.096795 54.0928 0.0404638V0.0404638C53.4506 0.0173321 52.6195 0.00570628 52.2362 0.00570628V0.00570628L17.7692 0.000193046C17.3873 0.000193046 16.556 0.0116962 15.9134 0.0345882" fill="white"/>
</mask>
<g mask="url(#mask0_238_2542)">
<path d="M15.9134 0.0345882C14.3523 0.0900804 12.3403 0.212213 11.4258 0.396788V0.396788C10.0299 0.678684 8.7116 1.10608 7.61529 1.66484V1.66484C6.32723 2.32128 5.1728 3.15881 4.17597 4.15408V4.15408C3.17687 5.15126 2.33598 6.30677 1.6769 7.59676V7.59676C1.1197 8.68718 0.692545 9.99743 0.409451 11.3855V11.3855C0.221161 12.3092 0.0966326 14.3361 0.0401815 15.9073V15.9073C0.0172894 16.5495 0.00554379 17.3805 0.00554379 17.7638V17.7638L3.05176e-05 52.2309C3.05176e-05 52.6126 0.0116563 53.4439 0.0344285 54.0868V54.0868C0.0899208 55.6478 0.212052 57.6597 0.396746 58.5742V58.5742C0.678522 59.97 1.10604 61.2884 1.66468 62.3847V62.3847C2.32124 63.6729 3.15865 64.8271 4.15392 65.8241V65.8241C5.1511 66.823 6.30673 67.6639 7.5966 68.3231V68.3231C8.68714 68.8802 9.99739 69.3075 11.3853 69.5906V69.5906C12.309 69.7789 14.3361 69.9034 15.9073 69.9597V69.9597C16.5492 69.9827 17.3804 69.9945 17.7637 69.9945V69.9945L52.2307 70C52.6126 70 53.4439 69.9885 54.0865 69.9656V69.9656C55.6476 69.91 57.6597 69.788 58.5741 69.6033V69.6033C59.97 69.3214 61.2884 68.8939 62.3846 68.3354V68.3354C63.6727 67.6788 64.8271 66.8413 65.8239 65.8461V65.8461C66.8229 64.8488 67.6638 63.6934 68.323 62.4034V62.4034C68.8801 61.3129 69.3075 60.0028 69.5904 58.6147V58.6147C69.7788 57.691 69.9033 55.6638 69.9597 54.0928V54.0928C69.9827 53.4507 69.9943 52.6197 69.9943 52.2364V52.2364L70 17.7693C70 17.3875 69.9883 16.5562 69.9655 15.9134V15.9134C69.9098 14.3524 69.7878 12.3404 69.6031 11.426V11.426C69.3214 10.03 68.8938 8.71175 68.3352 7.61545V7.61545C67.6788 6.32727 66.8411 5.17296 65.8461 4.17601V4.17601C64.8488 3.17715 63.6932 2.33614 62.4033 1.67707V1.67707C61.3127 1.11987 60.0026 0.692588 58.6146 0.409613V0.409613C57.6909 0.221323 55.6638 0.096795 54.0928 0.0404638V0.0404638C53.4506 0.0173321 52.6195 0.00570628 52.2362 0.00570628V0.00570628L17.7692 0.000193046C17.3873 0.000193046 16.556 0.0116962 15.9134 0.0345882" fill="url(#paint0_linear_238_2542)"/>
<path fill-rule="evenodd" clip-rule="evenodd" d="M47.1343 39.6073C46.5109 39.2953 43.4456 37.7875 42.874 37.5795C42.3026 37.3716 41.887 37.2675 41.4714 37.8915C41.0557 38.5155 39.8609 39.9193 39.4971 40.3353C39.1335 40.7512 38.7699 40.8033 38.1464 40.4912C37.5229 40.1794 35.514 39.5212 33.1327 37.3977C31.2793 35.7452 30.028 33.7039 29.6642 33.08C29.3006 32.456 29.6255 32.1187 29.9377 31.808C30.2181 31.5288 30.5611 31.0801 30.8728 30.7161C31.1846 30.3521 31.2885 30.0921 31.4963 29.6762C31.7041 29.2602 31.6002 28.8962 31.4443 28.5843C31.2885 28.2723 30.0416 25.2045 29.5221 23.9566C29.0161 22.7413 28.502 22.9057 28.1193 22.8867C27.756 22.8686 27.34 22.8647 26.9244 22.8647C26.5087 22.8647 25.8333 23.0208 25.2618 23.6446C24.6903 24.2686 23.0797 25.7766 23.0797 28.8442C23.0797 31.912 25.3138 34.8757 25.6255 35.2918C25.9373 35.7078 30.0219 42.0032 36.2761 44.7029C37.7636 45.3451 38.925 45.7285 39.8303 46.0159C41.324 46.4902 42.6831 46.4233 43.7573 46.2628C44.9552 46.0839 47.4461 44.7549 47.9656 43.2991C48.4851 41.8432 48.4851 40.5953 48.3293 40.3353C48.1735 40.0754 47.7578 39.9193 47.1343 39.6073M35.7584 55.1343H35.75C32.0286 55.1329 28.3786 54.1336 25.1944 52.2446L24.4371 51.7951L16.5877 53.8536L18.6829 46.203L18.1897 45.4187C16.1137 42.1176 15.0173 38.3023 15.0188 34.3849C15.0234 22.9538 24.327 13.6537 35.7667 13.6537C41.3061 13.6559 46.5133 15.8153 50.4289 19.734C54.3445 23.6529 56.4997 28.8619 56.4975 34.4017C56.4929 45.8337 47.1894 55.1343 35.7584 55.1343M53.409 16.7563C48.698 12.0413 42.4331 9.44352 35.7582 9.44088C22.005 9.44088 10.8115 20.6301 10.8059 34.3834C10.8041 38.7797 11.9531 43.0712 14.1366 46.8538L10.5967 59.7798L23.8242 56.3112C27.4687 58.2984 31.572 59.3456 35.7482 59.3474H35.7584H35.7585C49.5104 59.3474 60.7049 48.1567 60.7105 34.4033C60.713 27.7382 58.1201 21.4711 53.409 16.7563" fill="white"/>
</g>
<defs>
<linearGradient id="paint0_linear_238_2542" x1="-4.45843e-05" y1="70" x2="-4.45843e-05" y2="0.000110307" gradientUnits="userSpaceOnUse">
<stop stop-color="#25CF43"/>
<stop offset="1" stop-color="#61FD7D"/>
</linearGradient>
</defs>
</svg>

<svg width="70" height="70" fill="none" xmlns="http://www.w3.org/2000/svg"><mask id="a" style="mask-type:alpha" maskUnits="userSpaceOnUse" x="0" y="0" width="70" height="70"><path fill-rule="evenodd" clip-rule="evenodd" d="M15.913.035c-1.56.055-3.573.177-4.487.362-1.396.282-2.714.71-3.81 1.268a13.578 13.578 0 0 0-3.44 2.49c-1 .996-1.84 2.152-2.5 3.442-.556 1.09-.983 2.4-1.267 3.788-.188.924-.312 2.951-.369 4.522a62.947 62.947 0 0 0-.034 1.857L0 52.23c0 .382.012 1.213.034 1.856.056 1.56.178 3.573.363 4.487.282 1.396.709 2.714 1.268 3.81a13.582 13.582 0 0 0 2.489 3.44c.997.999 2.153 1.84 3.443 2.5 1.09.556 2.4.984 3.788 1.267.924.188 2.951.312 4.522.369.642.023 1.473.035 1.857.035L52.23 70c.382 0 1.213-.011 1.855-.034 1.562-.056 3.574-.178 4.488-.363 1.396-.282 2.714-.71 3.81-1.268a13.582 13.582 0 0 0 3.44-2.489 13.58 13.58 0 0 0 2.499-3.443c.557-1.09.985-2.4 1.267-3.788.189-.924.313-2.951.37-4.522.023-.642.034-1.473.034-1.857L70 17.77c0-.381-.012-1.213-.034-1.856-.056-1.56-.178-3.573-.363-4.487-.282-1.396-.71-2.714-1.268-3.81a13.584 13.584 0 0 0-2.489-3.44 13.583 13.583 0 0 0-3.443-2.499c-1.09-.557-2.4-.984-3.788-1.267C57.69.22 55.664.097 54.093.04a62.185 62.185 0 0 0-1.857-.034L17.77 0c-.382 0-1.213.012-1.856.035" fill="#fff"/></mask><g mask="url(#a)"><path d="M15.913.035c-1.56.055-3.573.177-4.487.362-1.396.282-2.714.71-3.81 1.268a13.578 13.578 0 0 0-3.44 2.49c-1 .996-1.84 2.152-2.5 3.442-.556 1.09-.983 2.4-1.267 3.788-.188.924-.312 2.951-.369 4.522a62.947 62.947 0 0 0-.034 1.857L0 52.23c0 .382.012 1.213.034 1.856.056 1.56.178 3.573.363 4.487.282 1.396.709 2.714 1.268 3.81a13.582 13.582 0 0 0 2.489 3.44c.997.999 2.153 1.84 3.443 2.5 1.09.556 2.4.984 3.788 1.267.924.188 2.951.312 4.522.369.642.023 1.473.035 1.857.035L52.23 70c.382 0 1.213-.011 1.855-.034 1.562-.056 3.574-.178 4.488-.363 1.396-.282 2.714-.71 3.81-1.268a13.582 13.582 0 0 0 3.44-2.489 13.58 13.58 0 0 0 2.499-3.443c.557-1.09.985-2.4 1.267-3.788.189-.924.313-2.951.37-4.522.023-.642.034-1.473.034-1.857L70 17.77c0-.381-.012-1.213-.034-1.856-.056-1.56-.178-3.573-.363-4.487-.282-1.396-.71-2.714-1.268-3.81a13.584 13.584 0 0 0-2.489-3.44 13.583 13.583 0 0 0-3.443-2.499c-1.09-.557-2.4-.984-3.788-1.267C57.69.22 55.664.097 54.093.04a62.185 62.185 0 0 0-1.857-.034L17.77 0c-.382 0-1.213.012-1.856.035" fill="url(#paint0_linear_238_2542)"/><path fill-rule="evenodd" clip-rule="evenodd" d="M47.134 39.607c-.623-.312-3.688-1.82-4.26-2.027-.571-.208-.987-.313-1.403.312-.415.623-1.61 2.027-1.974 2.443-.364.416-.727.468-1.35.156-.624-.312-2.633-.97-5.014-3.093-1.854-1.653-3.105-3.694-3.469-4.318-.363-.624-.039-.961.274-1.272.28-.28.623-.728.935-1.092.312-.364.415-.624.623-1.04.208-.416.104-.78-.052-1.092-.155-.312-1.402-3.38-1.922-4.627-.506-1.216-1.02-1.051-1.403-1.07-.363-.018-.779-.022-1.195-.022-.415 0-1.09.156-1.662.78-.572.624-2.182 2.132-2.182 5.2 0 3.067 2.234 6.03 2.546 6.447.311.416 4.396 6.711 10.65 9.41a35.897 35.897 0 0 0 3.554 1.314c1.494.474 2.853.407 3.927.247 1.198-.18 3.69-1.508 4.209-2.964.52-1.456.52-2.704.363-2.964-.156-.26-.571-.416-1.195-.728M35.758 55.134h-.008c-3.721-.001-7.371-1-10.556-2.89l-.757-.449-7.85 2.059 2.096-7.651-.493-.784a20.68 20.68 0 0 1-3.171-11.034c.004-11.431 9.308-20.731 20.748-20.731a20.603 20.603 0 0 1 14.662 6.08 20.605 20.605 0 0 1 6.069 14.668c-.005 11.432-9.309 20.732-20.74 20.732M53.41 16.756c-4.711-4.715-10.976-7.312-17.65-7.315-13.754 0-24.947 11.19-24.953 24.942a24.894 24.894 0 0 0 3.33 12.47l-3.54 12.927 13.228-3.469a24.94 24.94 0 0 0 11.924 3.036h.01c13.752 0 24.947-11.19 24.953-24.944.002-6.665-2.59-12.932-7.302-17.647" fill="#fff"/></g><defs><linearGradient id="paint0_linear_238_2542" x1="0" y1="70" x2="0" y2="0" gradientUnits="userSpaceOnUse"><stop stop-color="#25CF43"/><stop offset="1" stop-color="#61FD7D"/></linearGradient></defs></svg>
